svgs/duotone/brackets-square.svg

<svg xmlns="http://www.w3.org/2000/svg" viewBox="0 0 448 512"><!-- Font Awesome Pro 6.0.0-alpha2 by @fontawesome - https://fontawesome.com License - https://fontawesome.com/license (Commercial License) --><defs><style>.fa-secondary{opacity:.4}</style></defs><path d="M416 32H320C302.327 32 288 46.327 288 64V64C288 81.673 302.327 96 320 96H384V416H320C302.327 416 288 430.327 288 448V448C288 465.673 302.327 480 320 480H416C433.6 480 448 465.6 448 448V64C448 46.4 433.6 32 416 32Z" class="fa-secondary"/><path d="M128 32H32C14.4 32 0 46.4 0 64V448C0 465.6 14.4 480 32 480H128C145.673 480 160 465.673 160 448V448C160 430.327 145.673 416 128 416H64V96H128C145.673 96 160 81.673 160 64V64C160 46.327 145.673 32 128 32Z" class="fa-primary"/></svg>

<svg xmlns="http://www.w3.org/2000/svg" viewBox="0 0 448 512"><!--! Font Awesome Pro 6.3.0 by @fontawesome - https://fontawesome.com License - https://fontawesome.com/license (Commercial License) Copyright 2023 Fonticons, Inc. --><defs><style>.fa-secondary{opacity:.4}</style></defs><path class="fa-primary" d="M128 32H32C14.4 32 0 46.4 0 64v384c0 17.6 14.4 32 32 32h96C145.7 480 160 465.7 160 448S145.7 416 128 416H64V96h64C145.7 96 160 81.67 160 64S145.7 32 128 32z"/><path class="fa-secondary" d="M416 32h-96C302.3 32 288 46.33 288 63.1S302.3 96 319.1 96H384v320h-64C302.3 416 288 430.3 288 447.1S302.3 480 319.1 480H416c17.6 0 32-14.4 32-32V64C448 46.4 433.6 32 416 32z"/></svg>
